svg/tray_remove.svg

<svg xmlns="http://www.w3.org/2000/svg" viewBox="0 0 24 24"><path d="M2 17a2 2 0 0 0 2 2h16a2 2 0 0 0 2-2v-5h-2v5H4v-5H2m12.12-6.54 1.42 1.42L13.41 9l2.13 2.12-1.42 1.42L12 10.41l-2.12 2.13-1.42-1.42L10.59 9 8.46 6.88l1.42-1.42L12 7.59Z"/></svg>

<?xml version="1.0" encoding="UTF-8"?><!DOCTYPE svg PUBLIC "-//W3C//DTD SVG 1.1//EN" "http://www.w3.org/Graphics/SVG/1.1/DTD/svg11.dtd"><svg xmlns="http://www.w3.org/2000/svg" xmlns:xlink="http://www.w3.org/1999/xlink" version="1.1" id="mdi-tray-remove" width="24" height="24" viewBox="0 0 24 24"><path d="M2 17A2 2 0 0 0 4 19H20A2 2 0 0 0 22 17V12H20V17H4V12H2M14.12 5.46L15.54 6.88L13.41 9L15.54 11.12L14.12 12.54L12 10.41L9.88 12.54L8.46 11.12L10.59 9L8.46 6.88L9.88 5.46L12 7.59Z" /></svg>
